X: 8418
T: Cowhalling
R: barndance
M: 4/4
K: Dmajor
D2 d2 d2 d2|d=cBA F2D2|GBdB A2 FD|EFGB A2FE|D2 d2 d2 d2|
d=cBA F2D2|GBdB A2 FD|1 EFE2 D2 D2:|2 EFE2 D2 f2||
d2 ec d2 f2|d2 ec d2 f2|d2 ~E2 D2 f2|d2 ec d2 f2|
d2 ec d2 f2|d2 ec d2 (fe|d) (FED) (fed) (F|ED) (ce(d d3))||
aa|:abaf gage|f2 dc B g2 e|f2 d2 edce|
A2 FE D2 aa|abaf gage|f2 dc B g2 e|
g2 d2 edce|1 d2 FE D2 aa:|2 [M:2/4 L:1/16] d4 f4|:
[M:4/4 L:1/8] d2 ec d2 f2|d2 ec d2 d2|Bfff fgfd|edce d2 f2:|

